X: 155
T: St. Martin's
M:4/4
L:1/8
Q:160
S:Playford
O:Manuscript
A:English
K:C
E2|AB c2 Bc d2|c4 c2 d2|e^f g2 f3 e|e6 e^f|g2 ^fe d2 de|f2 ed c2 cd|e2 d c B3 A|A6:|
|: B2 e2 B2 c2| B3 A G^F G2|cde^f d3 e|c6 e^f|g2de f2 cd|e2 Bc d2 cd|e2 dc B3 A|A6:|

